apps/symbolic/empathy-symbolic.svg

<svg height="24" viewBox="0 0 24 24" width="24" xmlns="http://www.w3.org/2000/svg"><path d="m17.4 8.4h-10.8v-1.8h10.8zm0 2.7h-10.8v-1.8h10.8zm0 2.7h-10.8v-1.8h10.8zm3.6-9a1.8 1.8 0 0 0 -1.8-1.8h-14.4a1.8 1.8 0 0 0 -1.8 1.8v10.8a1.8 1.8 0 0 0 1.8 1.8h12.6l3.6 3.6z" fill="#bebebe" stroke-width=".9"/></svg>

<?xml version="1.0" encoding="UTF-8" standalone="no"?>
<svg
   xmlns:dc="http://purl.org/dc/elements/1.1/"
   xmlns:cc="http://creativecommons.org/ns#"
   xmlns:rdf="http://www.w3.org/1999/02/22-rdf-syntax-ns#"
   xmlns:svg="http://www.w3.org/2000/svg"
   xmlns="http://www.w3.org/2000/svg"
   xmlns:sodipodi="http://sodipodi.sourceforge.net/DTD/sodipodi-0.dtd"
   xmlns:inkscape="http://www.inkscape.org/namespaces/inkscape"
   version="1.1"
   width="24"
   height="24"
   viewBox="0 0 24 24"
   id="svg2"
   inkscape:version="0.92.1 r15371"
   sodipodi:docname="empathy-symbolic.svg">
  <metadata
     id="metadata10">
    <rdf:RDF>
      <cc:Work
         rdf:about="">
        <dc:format>image/svg+xml</dc:format>
        <dc:type
           rdf:resource="http://purl.org/dc/dcmitype/StillImage" />
      </cc:Work>
    </rdf:RDF>
  </metadata>
  <defs
     id="defs8" />
  <sodipodi:namedview
     pagecolor="#ffffff"
     bordercolor="#666666"
     borderopacity="1"
     objecttolerance="10"
     gridtolerance="10"
     guidetolerance="10"
     inkscape:pageopacity="0"
     inkscape:pageshadow="2"
     inkscape:window-width="640"
     inkscape:window-height="480"
     id="namedview6"
     showgrid="false"
     inkscape:zoom="25.291667"
     inkscape:cx="5.0411862"
     inkscape:cy="12"
     inkscape:current-layer="svg2" />
  <path
     d="M 17.4,8.4 H 6.6 V 6.6 h 10.8 v 1.8 m 0,2.7 H 6.6 V 9.3 h 10.8 v 1.8 m 0,2.7 H 6.6 V 12 h 10.8 v 1.8 M 21,4.8 A 1.8,1.8 0 0 0 19.2,3 H 4.8 A 1.8,1.8 0 0 0 3,4.8 v 10.8 a 1.8,1.8 0 0 0 1.8,1.8 H 17.4 L 21,21 Z"
     id="path4"
     style="fill:#bebebe;fill-opacity:1;stroke-width:0.89999998"
     inkscape:connector-curvature="0" />
</svg>
